X:1
T:Mount Ephraim, SM
T:Mount Ephraim, SM
T:Benjamin Milgrove (1731-1810)
T:Public Domain Courtesy of the Cyber Hymnal™
C:Benjamin Milgrove (1731-1810)
Z:Public Domain
Z:Courtesy of the Cyber Hymnal™
%%score ( 1 2 ) ( 3 4 )
L:1/8
Q:1/4=110
M:3/4
K:D
V:1 treble 
V:2 treble 
V:3 bass 
V:4 bass 
V:1
 D2 | ([DF]2 [CE]2) D2 | ([FA]>[EG] [DF]2) [CE]2 | D4 [Fd]2 | ([Ec]2 [DB]2) [CA]2 | %5
 ([Ee]>[Fd] [Ec]2) [DB]2 | [CA]4 [EG]2 | (F>D D2) [DB]2 | (A>G F2) [DA]2 x2 | (B>A B2) [Gc]2 | %10
 [Fd]4 [DB]2 | ([DA][CG][DF][CE]) (D[EG]) | [DF]4 [CE]2 | D4 |] %14
V:2
 D2 | x4 D2 | x6 | D4 x2 | x6 | x6 | x6 | D4 x2 | D4 x4 | D4 x2 | x6 | x4 D x | x6 | D4 |] %14
V:3
 [D,F,]2 | (A,2 G,2) [B,,F,]2 | ([G,,A,]>[G,,B,] [A,,A,]2) [A,,G,]2 | [D,F,]4 [D,A,]2 | %4
 A,2 [E,^G,]2 [F,A,]2 | A,4 [E,^G,]2 | [A,,A,]4 [C,A,]2 | (A,>G, F,2) G,2 | A,4 D,2 [F,A,]2 | %9
 G,>([F,A,] G,2) [E,G,]2 | [D,A,]4 G,2 | A,2 ([D,A,][A,,G,]) ([B,,F,][G,,B,]) | [A,,A,]4 [A,,G,]2 | %13
 [D,F,]4 |] %14
V:4
 x2 | A,,4 x2 | x6 | x6 | A,2 x4 | (C,>D, E,2) x2 | x6 | D,4 x2 | F,>E, x6 | (G,3/2 G,2) x5/2 | %10
 x4 G,2 | F, E, x4 | x6 | x4 |] %14

